Newaita/actions/24/edit-paste-style.svg

<svg height="24" viewBox="0 0 24 24" width="24" xmlns="http://www.w3.org/2000/svg"><g fill="#424242"><path d="m12.898438 3.164062v9.921876c0 .550781-.441407.992187-.992188.992187-.546875 0-.992188-.441406-.992188-.992187v-9.921876c0-.546874.445313-.992187.992188-.992187.550781 0 .992188.445313.992188.992187zm0 0"/><path d="m18.851562 15.070312h-13.890624c-.546876 0-.992188-.441406-.992188-.992187 0-.546875.445312-.992187.992188-.992187h13.890624c.550782 0 .992188.445312.992188.992187 0 .550781-.441406.992187-.992188.992187zm0 0"/><path d="m4.960938 16.15625c-.285157 0-.515626.230469-.515626.511719 0 1.488281.03125 3.195312-1.777343 4.550781-.394531.296875-.183594.925781.308593.925781h3.96875c.101563 0 .203126-.03125.285157-.085937 1.015625-.675782 1.800781-1.355469 2.507812-2.027344-.125.328125-.34375.71875-.738281 1.3125-.230469.34375.015625.800781.425781.800781h7.441407c.113281 0 .222656-.035156.308593-.101562 2.160157-1.621094 2.199219-3.890625 2.191407-5.375 0-.285157-.230469-.511719-.515626-.511719zm0 0"/></g></svg>

<?xml version="1.0" encoding="UTF-8"?>
<svg xmlns="http://www.w3.org/2000/svg" xmlns:xlink="http://www.w3.org/1999/xlink" width="24px" height="24px" viewBox="0 0 24 24" version="1.1">
<g id="surface1">
<path style=" stroke:none;fill-rule:nonzero;fill:rgb(25.882354%,25.882354%,25.882354%);fill-opacity:1;" d="M 12.898438 3.164062 L 12.898438 13.085938 C 12.898438 13.636719 12.457031 14.078125 11.90625 14.078125 C 11.359375 14.078125 10.914062 13.636719 10.914062 13.085938 L 10.914062 3.164062 C 10.914062 2.617188 11.359375 2.171875 11.90625 2.171875 C 12.457031 2.171875 12.898438 2.617188 12.898438 3.164062 Z M 12.898438 3.164062 "/>
<path style=" stroke:none;fill-rule:nonzero;fill:rgb(25.882354%,25.882354%,25.882354%);fill-opacity:1;" d="M 18.851562 15.070312 L 4.960938 15.070312 C 4.414062 15.070312 3.96875 14.628906 3.96875 14.078125 C 3.96875 13.53125 4.414062 13.085938 4.960938 13.085938 L 18.851562 13.085938 C 19.402344 13.085938 19.84375 13.53125 19.84375 14.078125 C 19.84375 14.628906 19.402344 15.070312 18.851562 15.070312 Z M 18.851562 15.070312 "/>
<path style=" stroke:none;fill-rule:nonzero;fill:rgb(25.882354%,25.882354%,25.882354%);fill-opacity:1;" d="M 4.960938 16.15625 C 4.675781 16.15625 4.445312 16.386719 4.445312 16.667969 C 4.445312 18.15625 4.476562 19.863281 2.667969 21.21875 C 2.273438 21.515625 2.484375 22.144531 2.976562 22.144531 L 6.945312 22.144531 C 7.046875 22.144531 7.148438 22.113281 7.230469 22.058594 C 8.246094 21.382812 9.03125 20.703125 9.738281 20.03125 C 9.613281 20.359375 9.394531 20.75 9 21.34375 C 8.769531 21.6875 9.015625 22.144531 9.425781 22.144531 L 16.867188 22.144531 C 16.980469 22.144531 17.089844 22.109375 17.175781 22.042969 C 19.335938 20.421875 19.375 18.152344 19.367188 16.667969 C 19.367188 16.382812 19.136719 16.15625 18.851562 16.15625 Z M 4.960938 16.15625 "/>
</g>
</svg>
